assets/images/email.svg

<svg width="22" height="22" viewBox="0 0 22 22" fill="none" xmlns="http://www.w3.org/2000/svg">
<g clip-path="url(#clip0_316_3319)">
<path d="M1.55332 5.84274L10.5286 11.9408C10.815 12.1347 11.1851 12.1347 11.4693 11.9408L20.4446 5.84274C20.894 5.53872 20.6781 4.83594 20.1362 4.83594H1.86175C1.31979 4.83594 1.10389 5.53651 1.55332 5.84274ZM20.3609 6.80548L14.8973 10.5176L20.2882 15.7257C20.6385 16.0628 21.2223 15.816 21.2223 15.3291V7.26151C21.2201 6.8187 20.7266 6.55873 20.3609 6.80548ZM1.70973 15.7257L7.10064 10.5177L1.63703 6.80548C1.27132 6.55653 0.777838 6.8187 0.777838 7.26151V15.3291C0.775635 15.816 1.35945 16.0628 1.70973 15.7257Z" fill="white"/>
<path d="M19.3034 17.1643C19.7991 17.1643 20.0414 16.5607 19.6867 16.217L14.2451 10.9604L11.835 12.5973C11.5816 12.7692 11.2908 12.8551 11 12.8551C10.7092 12.8551 10.4184 12.7692 10.1651 12.5973L7.75273 10.9604L2.31116 16.217C1.95426 16.5607 2.1988 17.1643 2.69449 17.1643H19.3034Z" fill="white"/>
</g>
<defs>
<clipPath id="clip0_316_3319">
<rect width="20.4444" height="20.4444" fill="white" transform="translate(0.777832 0.777832)"/>
</clipPath>
</defs>
</svg>

<svg width="22" height="22" fill="none" xmlns="http://www.w3.org/2000/svg"><g clip-path="url(#a)" fill="#fff"><path d="m1.553 5.843 8.976 6.098a.833.833 0 0 0 .94 0l8.976-6.098c.449-.304.233-1.007-.309-1.007H1.862c-.542 0-.758.7-.309 1.007Zm18.808.962-5.464 3.713 5.391 5.208c.35.337.934.09.934-.397V7.262a.552.552 0 0 0-.861-.457ZM1.71 15.725l5.39-5.207-5.463-3.713a.55.55 0 0 0-.86.457v8.067a.55.55 0 0 0 .933.397Z"/><path d="M19.303 17.164a.551.551 0 0 0 .384-.947l-5.442-5.257-2.41 1.637a1.485 1.485 0 0 1-1.67 0L7.753 10.96 2.31 16.217a.551.551 0 0 0 .383.947h16.61Z"/></g><defs><clipPath id="a"><path fill="#fff" transform="translate(.778 .778)" d="M0 0h20.444v20.444H0z"/></clipPath></defs></svg>
